usr/share/icons/biglinux-icons-material/scalable/mimetypes/application-vnd.ms-cab-compressed.svg

<svg width="24" height="24" viewBox="0 0 24 24" fill="none" xmlns="http://www.w3.org/2000/svg">
<rect width="22" height="22" rx="6.6" transform="matrix(-1 0 0 1 23 1)" fill="url(#paint0_radial_1_321)"/>
<path d="M16.95 15.3V18.8751C16.95 19.0274 16.8274 19.1501 16.675 19.1501H15.025C14.8726 19.1501 14.75 19.0274 14.75 18.8751V15.3H16.95ZM16.4 17.5H15.3V18.6H16.4V17.5Z" fill="#FAFAFA"/>
<path d="M15.8491 1.00009V2.10009H14.7491V1.00009H15.8491ZM15.8491 2.10009H16.9491V3.20009H15.8491V2.10009ZM15.8491 3.20009V4.30009H14.7491V3.20009H15.8491ZM15.8491 4.30009H16.9491V5.40009H15.8491V4.30009ZM15.8491 5.40009V6.50009H14.7491V5.40009H15.8491ZM15.8491 6.50009H16.9491V7.60009H15.8491V6.50009ZM15.8491 7.60009V8.70009H14.7491V7.60009H15.8491ZM15.8491 8.70009H16.9491V9.80009H15.8491V8.70009ZM15.8491 9.80009V10.9001H14.7491V9.80009H15.8491ZM15.8491 10.9001H16.9491V12.0001H15.8491V10.9001ZM15.8491 12.0001V13.1001H14.7491V12.0001H15.8491ZM15.8491 13.1001H16.9491V14.2001H15.8491V13.1001ZM15.8491 14.2001V15.3001H14.7491V14.2001H15.8491Z" fill="#FAFAFA"/>
<path d="M4.00004 14.3629V14.9862H11.48V14.3629H4.00004ZM4.00004 15.6096V16.2329H10.2334V15.6096H4.00004ZM4.00004 16.8563V17.4796H11.48V16.8563H4.00004ZM4.00004 18.1029V18.7263H8.98665V18.1029H4.00004Z" fill="#FAFAFA"/>
<path d="M6.42254 10.2857V10.7143C6.28572 10.5868 6.13951 10.4916 5.98392 10.4285C5.82966 10.3655 5.66534 10.334 5.49096 10.334C5.14758 10.334 4.88468 10.4393 4.70225 10.6499C4.51982 10.8591 4.42861 11.1623 4.42861 11.5593C4.42861 11.955 4.51982 12.2582 4.70225 12.4688C4.88468 12.678 5.14758 12.7827 5.49096 12.7827C5.66534 12.7827 5.82966 12.7512 5.98392 12.6881C6.13952 12.6251 6.28572 12.5298 6.42254 12.4024V12.8269C6.28035 12.9235 6.12944 12.9959 5.96981 13.0442C5.81153 13.0925 5.64386 13.1167 5.46679 13.1167C5.01207 13.1167 4.65392 12.9779 4.39235 12.7002C4.13078 12.4212 4 12.0409 4 11.5593C4 11.0765 4.13078 10.6962 4.39235 10.4185C4.65392 10.1395 5.01207 10 5.46679 10C5.64653 10 5.81554 10.0241 5.97382 10.0724C6.13344 10.1194 6.28303 10.1905 6.42254 10.2857Z" fill="#FAFAFA"/>
<path d="M8.05433 10.4536L7.50303 11.9485H8.60765L8.05433 10.4536ZM7.82496 10.0532H8.28572L9.43057 13.0573H9.00803L8.73439 12.2867H7.38027L7.10664 13.0573H6.67806L7.82496 10.0532Z" fill="#FAFAFA"/>
<path d="M10.2757 11.6227V12.7233H10.9276C11.1462 12.7233 11.3079 12.6783 11.4125 12.5885C11.5185 12.4972 11.5715 12.3584 11.5715 12.172C11.5715 11.9842 11.5185 11.846 11.4125 11.7575C11.3079 11.6676 11.1462 11.6227 10.9276 11.6227L10.2757 11.6227ZM10.2757 10.3873V11.2927H10.8773C11.0758 11.2927 11.2234 11.2558 11.3199 11.182C11.4179 11.1069 11.4668 10.9929 11.4668 10.84C11.4668 10.6884 11.4179 10.5751 11.3199 10.5C11.2234 10.4249 11.0758 10.3873 10.8773 10.3873H10.2757ZM9.86927 10.0533H10.9075C11.2173 10.0533 11.4561 10.1177 11.6238 10.2464C11.7914 10.3752 11.8753 10.5583 11.8753 10.7957C11.8753 10.9795 11.8324 11.1257 11.7465 11.2343C11.6607 11.343 11.5346 11.4107 11.3682 11.4376C11.5681 11.4805 11.723 11.5704 11.833 11.7072C11.9443 11.8427 12 12.0123 12 12.2162C12 12.4845 11.9088 12.6918 11.7264 12.838C11.5439 12.9842 11.2844 13.0573 10.9477 13.0573H9.86922L9.86927 10.0533Z" fill="#FAFAFA"/>
<defs>
<radialGradient id="paint0_radial_1_321" cx="0" cy="0" r="1" gradientUnits="userSpaceOnUse" gradientTransform="translate(16.5) rotate(116.565) scale(24.5967)">
<stop stop-color="#F2C6A3"/>
<stop offset="1" stop-color="#D59868"/>
</radialGradient>
</defs>
</svg>

<svg xmlns="http://www.w3.org/2000/svg" width="24" height="24" fill="none"><rect width="22" height="22" fill="url(#a)" rx="6.6" transform="matrix(-1 0 0 1 23 1)"/><path fill="#FAFAFA" d="M16.95 15.3v3.575a.274.274 0 0 1-.275.275h-1.65a.274.274 0 0 1-.275-.275V15.3h2.2Zm-.55 2.2h-1.1v1.1h1.1v-1.1ZM15.85 1v1.1h-1.1V1h1.1Zm0 1.1h1.1v1.1h-1.1V2.1Zm0 1.1v1.1h-1.1V3.2h1.1Zm0 1.1h1.1v1.1h-1.1V4.3Zm0 1.1v1.1h-1.1V5.4h1.1Zm0 1.1h1.1v1.1h-1.1V6.5Zm0 1.1v1.1h-1.1V7.6h1.1Zm0 1.1h1.1v1.1h-1.1V8.7Zm0 1.1v1.1h-1.1V9.8h1.1Zm0 1.1h1.1V12h-1.1v-1.1Zm0 1.1v1.1h-1.1V12h1.1Zm0 1.1h1.1v1.1h-1.1v-1.1Zm0 1.1v1.1h-1.1v-1.1h1.1ZM4 14.363v.623h7.48v-.623H4Zm0 1.247v.623h6.233v-.623H4Zm0 1.246v.624h7.48v-.624H4Zm0 1.247v.623h4.987v-.623H4ZM6.423 10.286v.428a1.434 1.434 0 0 0-.44-.286 1.291 1.291 0 0 0-.492-.094c-.343 0-.606.105-.789.316-.182.21-.273.512-.273.91 0 .395.09.698.273.909.183.209.446.314.789.314.174 0 .339-.032.493-.095.156-.063.302-.158.439-.286v.425a1.655 1.655 0 0 1-.956.29c-.455 0-.813-.14-1.075-.417-.261-.279-.392-.66-.392-1.14 0-.484.13-.864.392-1.142.262-.278.62-.418 1.075-.418.18 0 .349.024.507.072.16.047.309.119.449.214ZM8.054 10.454l-.551 1.494h1.105l-.554-1.494Zm-.229-.4h.46l1.146 3.003h-.423l-.274-.77H7.38l-.273.77h-.429l1.147-3.004ZM10.276 11.623v1.1h.652c.218 0 .38-.045.484-.135.106-.09.16-.23.16-.416 0-.188-.053-.326-.16-.415-.104-.09-.266-.134-.484-.134h-.652Zm0-1.236v.906h.601c.199 0 .346-.037.443-.111.098-.075.147-.19.147-.342 0-.152-.05-.265-.147-.34-.097-.075-.244-.113-.443-.113h-.601Zm-.407-.334h1.039c.31 0 .548.065.716.193.167.13.251.312.251.55 0 .184-.043.33-.129.438a.577.577 0 0 1-.378.204c.2.042.355.132.465.27a.775.775 0 0 1 .167.508c0 .269-.091.476-.274.622-.182.146-.442.22-.778.22H9.869v-3.005Z"/><defs><radialGradient id="a" cx="0" cy="0" r="1" gradientTransform="rotate(116.565 8.25 5.099) scale(24.5967)" gradientUnits="userSpaceOnUse"><stop stop-color="#F2C6A3"/><stop offset="1" stop-color="#D59868"/></radialGradient></defs></svg>
